X: 31211
T: Paddy Fahey's
R: jig
M: 6/8
K: Aminor
"Am"(3c/d/c/BA EAB|cBc "D"a^fd|"Am7"c2 A "C"g^fg|"G"dBG Bcd|
"Am"(3c/d/c/BA EAB|cBc a2 g|"D"^faf "Am"g/a/ge|"G"dBG Bcd:|
|:"Am"cBA a^ga|Ace aed|BcA "C"g(3a/g/^f/g|"G"dBG Bcd|
"Am"cBA a^ga|Ace a2 g|"D"^f/g/af "C"g/a/ge|"G"dBG Bcd:|

